X:1
T:James Gibb editions
T:To God the Lord with one accord - Barnby
%%score [ ( 1 2 ) ( 3 4 ) ]
L:1/8
Q:1/4=80
M:4/4
K:G
V:1 treble nm="Midi_74"
V:2 treble 
V:3 bass nm="Midi_74"
V:4 bass 
V:1
"^86. 86. D. 86. 86""^To God the Lord with one accord""^Joseph Barnby\n(1838-96)"!f! B2 | %1
 B2 d2 B2 B2 | B2 d2 B2 || G2 | e3 d c2 d2 | B6 || c2 | B2 F2 G2 c2 | B3 A G2 ||[M:4/4] G2 | %10
 G2 G2 A3 A | G6!fine! |]!p! F2 | F2 F2 B2 F2 | F2 F2 B2- || B!<(!A | G3 A B2!<)! e2 | d6 || d2 | %19
 c3 B A2 d2 | c3 B A2 || G2 | G2 G2 F2 G2 |"^al fine" A6 || c4 B4 |] %25
V:2
 D2 | E2 F2 D2 ^D2 | E2 F2 G2 || =F2 | E3 G G2 F2 | G6 || G2 | F2 ^D2 E2 E2 | ^D2 F2 G2 || %9
[M:4/4] =F2 | E2 G2 G2 F2 | G6 |] ^D2 | ^D3 E F2 E2 | ^D3 E F2 || ^D2 | E3 F G2 G2 | G6 || =F2 | %19
 E3 E E2 =F2 | E3 D C2 || B,2 | ^C2 C2 C2 C2 | D6 || G4 G4 |] %25
V:3
!f! G,2 | G,2 A,2 G,2 F,2 | G,2 A,2 B,2 || D2 | C3 B, C2 A,2 | B,6 || G,2 | B,2 B,2 B,2 A,2 | %8
 F,2 B,2 B,2 ||[M:4/4] B,2 | C2 D2 C2 C2 | B,6 |]!p! B,2 | B,3 ^C ^D2 C2 | B,3 ^C ^D2 || B,2 | %16
 B,3 A, G,2 C2 | B,6 || B,2 | G,2 G,2 A,2 B,2 | G,2 ^G,2 A,2 || B,2 | A,2 A,2 A,2 G,2 | F,6 || %24
 E4 D4 |] %25
V:4
 G,2 | E,2 D,2 G,2 B,,2 | E,2 D,2 G,2 || G,2 | C,3 D, E,2 D,2 | G,6 || E,2 | ^D,2 B,,2 E,2 A,,2 | %8
 B,,2 ^D,2 E,2 ||[M:4/4] !courtesy!=D,2 | C,2 B,,2 A,,2 D,2 | G,,6 |] B,,2 | B,,2 B,,2 B,,2 F,2 | %14
 B,,2 B,,2 B,,2 || B,,2 | E,3 E, E,2 C,2 | G,6 || G,,2 | C,3 C, C,2 G,,2 | C,3 C, C,2 || D,2 | %22
 E,2 E,2 A,,2 A,,2 | D,6 || C,4 G,,4 |] %25

